!!!!SEGMENT: pl-sa--5-a-i-5--004_anonim--keyboard-piece.krn
!!!cenid: 18xx:648
!!!COM: Anonim
!!!COM-rismID: pe30004985
!!!CDT:
!!!CNT:
!!!OTL: [Keyboard piece]
!!!PDT:
!!!AGN: Secular
!!!SMS-siglum: PL-SA
!!!SMS-shelfmark: 5/A I 5
!!!SMS-shelfwork: 004 W
!!!SMS-variant:
!!!SMS-altvar:
!!!NIFC-rismSourceID: 1001069086
!!!NIFC-rismChildID: 1001069086
!!!NIFC-islandoraID: none
!!!URL-pdf-islandora:
!!!URL-scan: https://bc.bdsandomierz.pl/dlibra/publication/1269/edition/1237/content @EN{Scan in the Sandomierz Diocese Digital Library} @PL{Skany w portalu Cyfrowa Biblioteka Diecezjalna w Sandomierzu}
!!!IIIF:
!!!ONB-nifc: Str. 4
!!!AIN: 2 empty
!!!key:
**kern	**kern
*part2	*part1
*staff2	*staff1
*>[A,A,B,C,C1,C,C2,D,A]	*>[A,A,B,C,C1,C,C2,D,A]
*Iempty	*Iempty
*I"Keyboard instrument	*
*clefF4	*clefG2
*k[b-d-]	*k[b-e-]
*b-:	*b-:
*M3/8	*M3/8
=1	=1
*>A	*>A
!LO:TX:a:t=P:problem=przy kluczu błędnie zapisane bemole, powinny być BB- E-	!
8B-\L 8BB-\	16.b-\LL
.	32cc\K
!LO:SIC:s=8d\ 8B-\ 8F\:v	!
8d-\ 8B-\ 8F\	16.dd\
.	32ee-\JK
!LO:SIC:s=8d\J 8B-\ 8F\:v	!LO:N:vis=16
8d-\J 8B-\ 8F\	8ff\J
=2	=2
*tremolo	*
!LO:SIC:s=8d\L 8B-\ 8F\:v	!LO:N:vis=16
8d-\L 8B-\ 8F\	16.gg\LL
.	32een\JJk
!LO:SIC:s=8d\ 8B-\ 8F\:v	!
8d-\ 8B-\ 8F\	8.ff\L
!LO:SIC:s=8d\J 8B-\ 8F\:v	!
8d-\J 8B-\ 8F\	.
.	16dd\Jk
*Xtremolo	*
=3	=3
8B-\L 8BB-\	16.dd\LL 16.b-\
.	32cc\K
!LO:SIC:s=8d\ 8B-\ 8F\:v	!LO:N:vis=32.
8d-\ 8B-\ 8F\	16.dd\
.	32ee-X\JK
!LO:SIC:s=8d\J 8B-\ 8F\:v	!
8d-\J 8B-\ 8F\	8ff\J
=4	=4
*tremolo	*
!LO:SIC:s=8d\L 8B-\ 8F\:v	!LO:N:vis=16
8d-\L 8B-\ 8F\	16.gg\LL
.	32een\JJk
!LO:SIC:s=8d\ 8B-\ 8F\:v	!
8d-\ 8B-\ 8F\	8.ff\L
!LO:SIC:s=8d\J 8B-\ 8F\:v	!
8d-\J 8B-\ 8F\	.
*Xtremolo	*
.	16dd\Jk
=5	=5
8F/ 8FF/	16.cc\LL
.	32aa\JJk
8c\L 8A\ 8F\	8ccc\L
8c\J 8A\ 8F\	8ee-X\J
=6	=6
8B-\L 8BB-\	16.dd\LL
.	32bb-\JJk
!LO:SIC:s=8d\ 8B-\ 8F\:v	!
8d-\ 8B-\ 8F\	8ddd\L
!LO:SIC:s=8d\J 8B-\ 8F\:v	!
8d-\J 8B-\ 8F\	8bb-\J
=7	=7
!LO:SIC:s=8E-/ 8EE-/:v	!
8E/ 8EE/	16.aa\LL
.	32gg\K
!LO:SIC:s=8e-\L 8A\ 8F\:v	!
8e\L 8A\ 8F\	16.ff\
.	32ee-\K
!LO:SIC:s=8e-\J 8A\ 8F\:v	!
8e\J 8A\ 8F\	16.dd\
.	32cc\JJk
=8	=8
!	!LO:TX:a:t=P:\right:problem
!LO:SIC:s=8d\ 8B-\:v	!LO:TX:a:t=Fin
8d-\ 8B-\	16cc\LL
.	16b-\JJ
!LO:SIC:s=4d\ 4B-\:v	!
4d-\ 4B-\	4b-\
=9:||:;	=9:||:;
*>B	*>B
8F#X/ 8FF#X/	16.dd\LL
!	!LO:N:vis=16
.	32ff#X\K
*tremolo	*
!LO:SIC:s=8c\L 8A\ 8D\:v	!
!LO:TX:a:t=P:problem=dwie kreski nad nutą	!
8c\L 8A\ 8D-\	16.aa\
!	!LO:N:vis=16
.	32ddd\JJk
!LO:SIC:s=8c\J 8A\ 8D\:v	!
8c\J 8A\ 8D-\	8dd\
*Xtremolo	*
=10	=10
*tremolo	*
!LO:TX:a:t=P:problem=trzy kreski nad nutą	!
8B-\L 8G\	16.dd\LL
!	!LO:N:vis=128
.	32gg\K
8B-\ 8G\	16.bb-\
.	32ddd\JJk
8B-\J 8G\	8dd\
*Xtremolo	*
!!LO:LB:g=original
=11	=11
*tremolo	*
!LO:SIC:s=8c\L 8A\ 8F#X\ 8D\:v	!
8c\L 8A\ 8F#X\ 8D-\	8aa\L
!LO:SIC:s=8c\ 8A\ 8F#\ 8D\:v	!LO:N:vis=32.
8c\ 8A\ 8F#\ 8D-\	16.aa\L
!	!LO:N:vis=16
.	32dd\K
!LO:SIC:s=8c\J 8A\ 8F#\ 8D\:v	!
8c\J 8A\ 8F#\ 8D-\	16.ddd\
*Xtremolo	*
.	32ccc\JJk
=12	=12
*tremolo	*
8B-\L 8G\	16.bb-\LL
.	32aa\K
.	8qaa/
8B-\J 8G\	16.gg\
!	!LO:TX:a:t=P:problem=♯ nad nutą
.	32ff#X\JK
*Xtremolo	*
8ryy	8gg\J
=13	=13
!LO:TX:a:t=P:problem=przy 8En/ ♯ w funkcji kasownika	!
8En/ 8EEn/	16.cc\LL
!	!LO:SIC:s=32een\K:v
.	32ee-\K
*tremolo	*
!LO:N:n=1:vis=8.	!
!LO:N:n=3:vis=8.	!
8B-\L 8G\ 8C\	16.gg\
.	32ccc\JJk
8B-\J 8G\ 8C\	8cc\
*Xtremolo	*
=14	=14
*tremolo	*
8A\L 8F\	16.cc\LL
.	32ff\K
8A\J 8F\	16.aa\
*Xtremolo	*
.	32ccc\JJk
8ryy	8cc\
=15	=15
*tremolo	*
!LO:TX:a:t=P:problem=kasownik pojawia się dwa razy, przed kreską taktową oraz przy nucie, gdzie jest nie do końca widoczny	!LO:TURN:facc
8B-\L 8G\ 8En\ 8C\	8ggsSSs\L
8B-\J 8G\ 8E\ 8C\	16.gg\L
*Xtremolo	*
.	32cc\K
8ryy	16.ccc\
.	32bb-\JJk
=16	=16
8A\ 8F\	16.aa\LL
.	32gg\K
4A\ 4F\	16.ff\
.	32ee-X\K
.	16.dd\
.	32cc\JJk
!LO:TX:a:t=[segno]	!LO:TX:a:t=[segno]
=17||	=17||
*>C	*>C
*k[d-g-a-]	*k[b-e-a-]
*M3/8	*M3/8
!LO:TX:a:t=P:problem=błędne znaki przy kluczu, powinny być b- e- a-. Znak g- jest na wysokości g	!
!LO:SIC:s=8E-/ 8EE-/:v	!
8E/ 8EE/	16.g/LL
.	32e-/JJk
!LO:SIC:s=4c\ 4G\ 4E-\ 4BB-\:v	!
4c\ 4G-\ 4E\ 4BB\	8b-/L
.	8b-/J
=18	=18
.	8qdd/
8A-/ 8AA-/	16.cc\LL
.	32bn\JK
!LO:SIC:s=4c\ 4A-\ 4E-\:v	!
4c\ 4A-\ 4E\	8cc\
.	8ee-\J
=19	=19
!LO:SIC:s=8BB-/ 8BBB-/:v	!
8BB/ 8BBB/	16.dd\LL
.	32ee-\JJk
!LO:SIC:s=4A-\ 4F\ 4BB-\:v	!
4A-\ 4F\ 4BB\	8ff\L
.	8dd\J
=20	=20
!!LO:TX:a:t=1 fois
*>C1	*>C1
!LO:SIC:s=8G\ 8E-\:v	!LO:TX:a:t=P:problem=łuk zamiast klamry w oznaczeniu wolty
8G-\ 8E\	16.ee-\LL
.	32gg\JJk
!	!LO:TX:a:t=P:problem=przy 8qaan/ ♯ w funkcji kasownika
.	8qaan/
!LO:SIC:s=4G\ 4E-\:v	!
4G-\ 4E\	8bb-\L
.	8qaa/
.	8bb-\J
!!LO:LB:g=original
=21:||	=21:||
!!LO:TX:a:t=2 fois
*>C2	*>C2
!LO:SIC:s=8G\ 8E-\:v	!LO:TX:a:t=P:problem=łuk zamiast klamry w oznaczeniu wolty
8G-\ 8E\	16.ee-\LL
.	32gg\JJk
!LO:SIC:s=4G\ 4E-\:v	!
4G-\ 4E\	4ee-\
=25||;	=25||;
*>D	*>D
.	8qaa-/
8BBn\L	16.gg\LL
.	32ff#X\JJk
!LO:SIC:s=8G\ 8F\ 8D\:v	!
8G-\ 8F\ 8D-\	8gg\L
!LO:SIC:s=8G\J 8F\ 8D\:v	!
8G-\J 8F\ 8D-\	8dd\J
=26	=26
.	8qff/
8C\L	16.ee-\LL
.	32dd\JJk
!LO:SIC:s=8G\ 8E-\:v	!
8G-\ 8E\	8ee-\L
!LO:SIC:s=8G\J 8E-\:v	!
8G-\J 8E\	8cc\J
=27	=27
8FF#X\L	16.aan\LL
.	32dd\JJk
!LO:SIC:s=8c\ 8An\ 8F\ 8D\:v	!
8c\ 8An\ 8F\ 8D-\	8.ddd\L
!LO:SIC:s=8c\J 8A\ 8D\:v	!
8c\J 8A\ 8D-\	.
.	16ccc\Jk
=28	=28
*tremolo	*
.	8qccc/
!LO:SIC:s=8B-\L 8G\:v	!
8B\L 8G-\	16.bb-\LL
!	!LO:SIC:s=32aan\JJk:v
.	32aa-\JJk
!LO:SIC:s=8B-\ 8G\:v	!
8B\ 8G-\	8bb-\L
!LO:SIC:s=8B-\J 8G\:v	!
8B\J 8G-\	8gg\J
*Xtremolo	*
=29	=29
!LO:TX:a:t=P:problem=mixed beam	!
8Fn/L 8FFn/	16.aa-\LL
.	32ff\JJk
8c\ 8An\ 8F\	8.fff\L
8c\J 8A\ 8F\	.
.	16eee-\Jk
=30	=30
.	8qeee-/
!LO:TX:a:t=P:problem=mixed beam	!
!LO:SIC:s=8B-/L 8BB-/:v	!
8B/L 8BB/	16.ddd\LL
.	32ccc\JJk
!LO:SIC:s=8d\ 8B-\ 8F\:v	!
8d-\ 8B\ 8F\	8ddd\L
!LO:SIC:s=8d\J 8B-\ 8F\:v	!
8d-\J 8B\ 8F\	8bb-\J
=31	=31
!LO:TX:a:t=P:problem=mixed beam	!
!LO:SIC:s=8E-/L 8FF/:v	!
8E/L 8FF/	16.aan\LL
.	32gg\K
!LO:SIC:s=8c\ 8An\ 8F\:v	!
8c\ 8A-\ 8F\	16.ff\
.	32ee-\K
!LO:SIC:s=8c\J 8A\ 8F\:v	!
8c\J 8A-\ 8F\	16.dd\
.	32cc\JJk
=32	=32
!LO:SIC:s=8d\ 8B-\:v	!
8d-\ 8B\	16.b-\LL
.	32b-\JJk
!LO:SIC:s=4d\ 4B-\:v	!
4d-\ 4B\	8b-\L
!	!LO:TX:b:t=al Fine
.	8a-X\J
!LO:TX:a:t=[segno]	!LO:TX:a:t=[segno]
=||	=||
*-	*-
!!!system-decoration: {(s1,s2)}
!!!ENC: Zofia Niedbalska
!!!END: 2020-12-28
!!!ENC: Andrzej Kubiczek
!!!END: 2020-06-19
!!!YEC: Copyright 2022 Narodowy Instytut Fryderyka Chopina (https://polishscores.org)
!!!YEM: License CC-BY-4.0 (https://creativecommons.org/licenses/by/4.0)
